X: 11452
T: SIR GEORGE RODNEY'S MARCH
C: George Muschett
%R: march, shottish, strathspey
B: W. Hamilton "Universal Tune-Book" Vol. 1 Glasgow 1844 p.145 #2
S: http://imslp.org/wiki/Hamilton's_Universal_Tune-Book_(Various)
Z: 2016 John Chambers <jc:trillian.mit.edu>
M: C
L: 1/8
K: D
%%stretchstaff 0
% - - - - - - - - - - - - - - - - - - - - - - - - -
F>E |\
D2F>D A2c>A | d2d>d d2e2 | f>dg>e f2ed | e2e>e e2F>E |\
D2F>D A2c>A | d2f>d e2g>e | fe/f/ {a}gf/e/ d2e2 | d2d>d d2 :|
|: A>d |\
e2e>e e>fge | f2d>d d2A2 | d2f>d e2g>f | e>dc>B A>GF>E |\
D2F>D A2c>A | d2f>d e2g>e | fe/f/ {a}gf/e/ d2e2 | d2d>d d2 :|
% - - - - - - - - - - - - - - - - - - - - - - - - -

%%sep 1 1 500
%%sep 1 1 500

